X:8
T:Bourre  Gustou
C:Trad.
O:France
A:Aveyron
R:Bourre  3 temps
M:3/4
L:1/4
K:G
g |: e>d e/f/ | g>a g/f/ | e>d e/f/ | g2g | e>d e/f/ | g>a g/f/ | e/d/ c/d/ e/c/ | d>c d/e/ ::
ed/e/ g/e/ | d/e/cd | d/e/cB | cde | d/e/ge | dcd | d/e/cB | c3 :|
